public/avatar/shoe/181.svg

<svg xmlns:xlink="http://www.w3.org/1999/xlink" height="38.3" width="36.05" xmlns="http://www.w3.org/2000/svg"><use height="22.7" transform="translate(9.4 7.8)" width="23.45" xlink:href="#a"/><defs><g id="a" fill-rule="evenodd"><path d="m.7-7.05 3.85.3q1.45.4.65 2.35Q9 .85 8.3 6.1l.5 1.35.25 1.7-.75 1.3-1 1.05q-.3.1-.55-.9l-.3.05.05 1.75-3.15 1.35-.5-1.6-.4.1.25 1.6-.5.6-2.9.5q-.2-.05-.2-1.8l-.55.1-.1 1.85-.45.25-2.7.1-.3-1.95-.55.1-.25 1.75-.5.3-3.15-.7V12.7l-.6-.2-.25 2.2-.75-.1q-2.6-.5-3.2-2.9-.45-1.5.35-3.2l.9-1.4-.05-.4q-.4-.55.6-2.6.3-.7 1.55-1.2l1.15-.4q-.5-.3.6-1.3l1.7-.55.25-.15q-.3 0 .45-1.25l.95-.55 1.05-1.95Q-6-3.55-3.4-5.9q1.2-1 4.1-1.15" fill="#1f1e21" transform="translate(14.4 7.05)"/><path d="M1.1-3.05Q0-2.5-2-2.65q-2-.2-2.15-.85-.3-1.4 2.45-2.6 1.3-.65 3.5-.45 2.3.15 2.75 1.05.4.9-.25 2.35Q3.7-1.6 3.8-1l-.75-1.15q-1-1.4-1.95-.9" fill="#a36b07" transform="translate(14.4 7.05)"/><path d="m2.55-1.4-3.1.15q-1.75-.1-1.85-1 0-.35-.55-.5-.55-.05-.75-.35-.2-.4.25-1.4l.55-.5 1.25-.8 2.7-.5q2.9-.2 3.2 1.15.25 1-.15 1.9-.25 1.1-1.55 1.85" fill="#774805" transform="translate(14.4 7.05)"/><path d="m1.1-2.55-2.35-.1q-.8.4-1.2 2l-.1.15-1.65-.1q-.7-.25-.75-.4l.55-.75.85-.65.1-1.1q.65-2.35 3.05-2 1.35.25 2.15 1.6.7 1.4.05 1.9l-.7-.55" fill="#681c04" transform="translate(14.4 7.05)"/><path d="m1.7 11.7.25 1.95-2.2.5q-.2 0-.2-1.9l-1.6.35q.1 1.8-.15 1.85l-2.05.25-.2-2.05-2 .1.05 2.1-2.15-.25-.15-2.2-2.05-.9-.15 2.45q-2.3-.8-2.75-2.55-.6-2.3 1.1-4.25L7.8 6.2l.65 2.9-.7 1.15-.55.5-.4-1-.8.45q.2 1.3 0 1.5-.2.2-2.2 1.2-.3.05-.5-1.7l-1.6.5" fill="#bf830c" transform="translate(14.4 7.05)"/><path d="M4.2-.35q.3-1.3.8-1.4.6-.05 1.85 3.7 1.2 3.7.9 4.75-.4 1.05-3.65 2.4-3.5 1.35-7.75 1.85-5.8.75-8.5-3-.85-1.05.25-2.8.35-.55 1.5-1.2 1.15-.55 1.6-.45 1.85.45 4.3-4l3.75.85q1.85 2.8 4.3.9l.65-1.6" fill="#eee5b6" transform="translate(14.4 7.05)"/><path d="M.75-3.8q1.55-.95 3.8-.5.95.2 2.25 4.65 1.3 4.3.95 5.4-.4 1.1-3.65 2.4Q.6 9.5-3.65 10q-5.8.7-8.5-3-.85-1.05.25-2.85.35-.5 1.5-1.15 1.2-.55 1.6-.4 1.85.4 4.3-4.1l3.75.85Q-1-2.8.75-3.8" fill="#e2a620" transform="translate(14.4 7.05)"/><path d="M4.7-1.1.75-1.5l-.9.4-.4.5-.15.05Q-.9-2.65.85-3.6q1.6-.9 3.75-.5.65.2 1.5 2.45-.4.55-1.4.55" fill="#bf830c" transform="translate(14.4 7.05)"/><path d="M6.7 1.4q.75.5 1.05 3.45.1.9-.7 1.6Q4.85 8.1-.2 9.4q1.55-.75 1.4-2.15-.15-1.35-1.7-2l-2.95-.85q-.85-.5.75-2.15.7-.65.7-1.15 0-.85.45-1.25.75-.95 2.6-.6Q4.45-.1 6.7 1.4" fill="#bf830c" transform="translate(14.4 7.05)"/><path d="M-3.8-3.4q1.05-.1 2.1.6t1.05 1.4q0 .65-1.1 2.4L-3.2 3l-1.2 1.2q-1.15 1-2.4 1.15Q-9 5.5-9.2 3.4q0-.65 1.2-1.65.8-.5 3.35-3.75.35-1.35.85-1.4" fill="#bf830c" transform="translate(14.4 7.05)"/><path d="M-5.05-1.05q4.3 0 4.6 1.75.05.65-.8 1.2l-2.05-.15-3.1-1q-.4.1-.5-.4l.15-.75q.5-.65 1.7-.65m2.75 4q.1.8-.9 1.25-.3.15-2-.45L-7.8 3l-1.85-.5q-.4-.9 1-1.35l1.15-.2h1l2.45.65q1.65.55 1.75 1.35" fill="#1f1e21" transform="translate(14.4 7.05)"/><path d="M-6.25-.35q.35-.45 1.45-.3Q-1.75-.3-1.05.6q.1.25-.85 1l-1-.15-3.5-1q-.35-.2.15-.8m-.7 1.6q2.4.25 3.9 1.4.15.1-.2.6-.4.5-.7.45l-2.2-.7-2.9-.55q-.25-.2.65-.95l1.45-.25" fill="#eee5b6" transform="translate(14.4 7.05)"/><path d="M-4.15-.6q.5.1-1.3 1.45l-1.1-.7q-.15-.5.75-.8l1.65.05" fill="#fafcfb" transform="translate(14.4 7.05)"/><path d="m.45-.55-2.1.05-3.05-.75q-1.35.15-.5-1.15.4-.65 1.7-.75Q.8-3.4 1.2-1.8q.1.55-.75 1.25" fill="#1f1e21" transform="translate(14.4 7.05)"/><path d="m-.15-.8-1-.05-3.6-.7q-.4-.25.05-.85.4-.5 1.45-.4 3.2.05 3.8.95.2.35-.7 1.05" fill="#eee5b6" transform="translate(14.4 7.05)"/><path d="M-3.8-1.3q-1.1-.3-1.15-.55-.1-.65.7-.9l1.6-.05q.6.05-1.15 1.55v-.05m-2.15 2.75-1.35 1.4-1.35-.25-.5-.4q.15-.45 1.35-.95l1.85.2" fill="#fafcfb" transform="translate(14.4 7.05)"/><path d="m-1.95 2.6.05.05-.05-.05.55.3.5.55v.5l-.5.45-.75.3-.75-.05q-.55-.15.1-.3l.6-.45.25-.4-.1-.4-.15-.4.15-.2.1.1M1 1.2v.5l-.5.45-.75.3L-1 2.4q-.55-.15.05-.3l.65-.45.25-.4-.15-.4-.1-.4.1-.2.2.15-.05-.05.55.3q.45.3.5.55m.55-3.5.55.25.45.55v.6l-.45.4-.75.35-.8-.15Q.3-.35.7-.6l.6-.4.25-.4-.2-.45-.1-.4.2-.15.1.15v-.05" fill="#681c04" transform="translate(14.4 7.05)"/></g></defs></svg>

<?xml version="1.0" encoding="UTF-8" standalone="no"?>
<svg xmlns:xlink="http://www.w3.org/1999/xlink" height="38.3px" width="36.05px" xmlns="http://www.w3.org/2000/svg">
  <g transform="matrix(1.0, 0.0, 0.0, 1.0, 23.8, 14.85)">
    <use height="22.7" transform="matrix(1.0, 0.0, 0.0, 1.0, -14.4, -7.05)" width="23.45" xlink:href="#shape0"/>
  </g>
  <defs>
    <g id="shape0" transform="matrix(1.0, 0.0, 0.0, 1.0, 14.4, 7.05)">
      <path d="M0.7 -7.05 L4.55 -6.75 Q6.0 -6.35 5.2 -4.4 9.0 0.85 8.3 6.1 L8.8 7.45 9.05 9.15 8.3 10.45 7.3 11.5 Q7.0 11.6 6.75 10.6 L6.45 10.65 6.5 12.4 3.35 13.75 2.85 12.15 2.45 12.25 2.7 13.85 2.2 14.45 -0.7 14.95 Q-0.9 14.9 -0.9 13.15 L-1.45 13.25 -1.55 15.1 -2.0 15.35 -4.7 15.45 -5.0 13.5 -5.55 13.6 -5.8 15.35 -6.3 15.65 -9.45 14.95 -9.45 12.7 -10.05 12.5 -10.3 14.7 -11.05 14.6 Q-13.65 14.1 -14.25 11.7 -14.7 10.2 -13.9 8.5 L-13.0 7.1 -13.05 6.7 Q-13.45 6.15 -12.45 4.1 -12.15 3.4 -10.9 2.9 L-9.75 2.5 Q-10.25 2.2 -9.15 1.2 L-7.45 0.65 -7.2 0.5 Q-7.5 0.5 -6.75 -0.75 L-5.8 -1.3 -4.75 -3.25 Q-6.0 -3.55 -3.4 -5.9 -2.2 -6.9 0.7 -7.05" fill="#1f1e21" fill-rule="evenodd" stroke="none"/>
      <path d="M1.1 -3.05 Q0.0 -2.5 -2.0 -2.65 -4.0 -2.85 -4.15 -3.5 -4.45 -4.9 -1.7 -6.1 -0.4 -6.75 1.8 -6.55 4.1 -6.4 4.55 -5.5 4.95 -4.6 4.3 -3.15 3.7 -1.6 3.8 -1.0 L3.05 -2.15 Q2.05 -3.55 1.1 -3.05" fill="#a36b07" fill-rule="evenodd" stroke="none"/>
      <path d="M2.55 -1.4 L-0.55 -1.25 Q-2.3 -1.35 -2.4 -2.25 -2.4 -2.6 -2.95 -2.75 -3.5 -2.8 -3.7 -3.1 -3.9 -3.5 -3.45 -4.5 L-2.9 -5.0 -1.65 -5.8 1.05 -6.3 Q3.95 -6.5 4.25 -5.15 4.5 -4.15 4.1 -3.25 3.85 -2.15 2.55 -1.4" fill="#774805" fill-rule="evenodd" stroke="none"/>
      <path d="M1.1 -2.55 L-1.25 -2.65 Q-2.05 -2.25 -2.45 -0.65 L-2.55 -0.5 -4.2 -0.6 Q-4.9 -0.85 -4.95 -1.0 L-4.4 -1.75 -3.55 -2.4 -3.45 -3.5 Q-2.8 -5.85 -0.4 -5.5 0.95 -5.25 1.75 -3.9 2.45 -2.5 1.8 -2.0 L1.1 -2.55" fill="#681c04" fill-rule="evenodd" stroke="none"/>
      <path d="M1.7 11.7 L1.95 13.65 -0.25 14.15 Q-0.45 14.15 -0.45 12.25 L-2.05 12.6 Q-1.95 14.4 -2.2 14.45 L-4.25 14.7 -4.45 12.65 -6.45 12.75 -6.4 14.85 -8.55 14.6 -8.7 12.4 -10.75 11.5 -10.9 13.95 Q-13.2 13.15 -13.65 11.4 -14.25 9.1 -12.55 7.15 L7.8 6.2 8.45 9.1 7.75 10.25 7.2 10.75 6.8 9.75 6.0 10.2 Q6.2 11.5 6.0 11.7 5.8 11.9 3.8 12.9 3.5 12.95 3.3 11.2 L1.7 11.7" fill="#bf830c" fill-rule="evenodd" stroke="none"/>
      <path d="M4.2 -0.35 Q4.5 -1.65 5.0 -1.75 5.6 -1.8 6.85 1.95 8.05 5.65 7.75 6.7 7.35 7.75 4.1 9.1 0.6 10.45 -3.65 10.95 -9.45 11.7 -12.15 7.95 -13.0 6.9 -11.9 5.15 -11.55 4.6 -10.4 3.95 -9.25 3.4 -8.8 3.5 -6.95 3.95 -4.5 -0.5 L-0.75 0.35 Q1.1 3.15 3.55 1.25 L4.2 -0.35" fill="#eee5b6" fill-rule="evenodd" stroke="none"/>
      <path d="M0.75 -3.8 Q2.3 -4.75 4.55 -4.3 5.5 -4.1 6.8 0.35 8.1 4.65 7.75 5.75 7.35 6.85 4.1 8.15 0.6 9.5 -3.65 10.0 -9.45 10.7 -12.15 7.0 -13.0 5.95 -11.9 4.15 -11.55 3.65 -10.4 3.0 -9.2 2.45 -8.8 2.6 -6.95 3.0 -4.5 -1.5 L-0.75 -0.65 Q-1.0 -2.8 0.75 -3.8" fill="#e2a620" fill-rule="evenodd" stroke="none"/>
      <path d="M4.7 -1.1 L0.75 -1.5 -0.15 -1.1 -0.55 -0.6 -0.7 -0.55 Q-0.9 -2.65 0.85 -3.6 2.45 -4.5 4.6 -4.1 5.25 -3.9 6.1 -1.65 5.7 -1.1 4.7 -1.1" fill="#bf830c" fill-rule="evenodd" stroke="none"/>
      <path d="M6.7 1.4 Q7.45 1.9 7.75 4.85 7.85 5.75 7.05 6.45 4.85 8.1 -0.2 9.4 1.35 8.65 1.2 7.25 1.05 5.9 -0.5 5.25 L-3.45 4.4 Q-4.3 3.9 -2.7 2.25 -2.0 1.6 -2.0 1.1 -2.0 0.25 -1.55 -0.15 -0.8 -1.1 1.05 -0.75 4.45 -0.1 6.7 1.4" fill="#bf830c" fill-rule="evenodd" stroke="none"/>
      <path d="M-3.8 -3.4 Q-2.75 -3.5 -1.7 -2.8 -0.65 -2.1 -0.65 -1.4 -0.65 -0.75 -1.75 1.0 L-3.2 3.0 -4.4 4.2 Q-5.55 5.2 -6.8 5.35 -9.0 5.5 -9.2 3.4 -9.2 2.75 -8.0 1.75 -7.2 1.25 -4.65 -2.0 -4.3 -3.35 -3.8 -3.4" fill="#bf830c" fill-rule="evenodd" stroke="none"/>
      <path d="M-5.05 -1.05 Q-0.75 -1.05 -0.45 0.7 -0.4 1.35 -1.25 1.9 L-3.3 1.75 -6.4 0.75 Q-6.8 0.85 -6.9 0.35 L-6.75 -0.4 Q-6.25 -1.05 -5.05 -1.05" fill="#1f1e21" fill-rule="evenodd" stroke="none"/>
      <path d="M-2.3 2.95 Q-2.2 3.75 -3.2 4.2 -3.5 4.35 -5.2 3.75 L-7.8 3.0 -9.65 2.5 Q-10.05 1.6 -8.65 1.15 L-7.5 0.95 -6.5 0.95 -4.05 1.6 Q-2.4 2.15 -2.3 2.95" fill="#1f1e21" fill-rule="evenodd" stroke="none"/>
      <path d="M-6.25 -0.35 Q-5.9 -0.8 -4.8 -0.65 -1.75 -0.3 -1.05 0.6 -0.95 0.85 -1.9 1.6 L-2.9 1.45 -6.4 0.45 Q-6.75 0.25 -6.25 -0.35" fill="#eee5b6" fill-rule="evenodd" stroke="none"/>
      <path d="M-6.95 1.25 Q-4.55 1.5 -3.05 2.65 -2.9 2.75 -3.25 3.25 -3.65 3.75 -3.95 3.7 L-6.15 3.0 -9.05 2.45 Q-9.3 2.25 -8.4 1.5 L-6.95 1.25" fill="#eee5b6" fill-rule="evenodd" stroke="none"/>
      <path d="M-4.15 -0.6 Q-3.65 -0.5 -5.45 0.85 L-6.55 0.15 Q-6.7 -0.35 -5.8 -0.65 L-4.15 -0.6" fill="#fafcfb" fill-rule="evenodd" stroke="none"/>
      <path d="M0.45 -0.55 L-1.65 -0.5 -4.7 -1.25 Q-6.05 -1.1 -5.2 -2.4 -4.8 -3.05 -3.5 -3.15 0.8 -3.4 1.2 -1.8 1.3 -1.25 0.45 -0.55" fill="#1f1e21" fill-rule="evenodd" stroke="none"/>
      <path d="M-0.15 -0.8 L-1.15 -0.85 -4.75 -1.55 Q-5.15 -1.8 -4.7 -2.4 -4.3 -2.9 -3.25 -2.8 -0.05 -2.75 0.55 -1.85 0.75 -1.5 -0.15 -0.8" fill="#eee5b6" fill-rule="evenodd" stroke="none"/>
      <path d="M-3.8 -1.3 Q-4.9 -1.6 -4.95 -1.85 -5.05 -2.5 -4.25 -2.75 L-2.65 -2.8 Q-2.05 -2.75 -3.8 -1.25 L-3.8 -1.3" fill="#fafcfb" fill-rule="evenodd" stroke="none"/>
      <path d="M-5.95 1.45 L-7.3 2.85 -8.65 2.6 -9.15 2.2 Q-9.0 1.75 -7.8 1.25 L-5.95 1.45" fill="#fafcfb" fill-rule="evenodd" stroke="none"/>
      <path d="M-1.95 2.6 L-1.9 2.65 -1.95 2.6 -1.4 2.9 -0.9 3.45 -0.9 3.95 -1.4 4.4 -2.15 4.7 -2.9 4.65 Q-3.45 4.5 -2.8 4.35 L-2.2 3.9 -1.95 3.5 -2.05 3.1 -2.2 2.7 -2.05 2.5 -1.95 2.6" fill="#681c04" fill-rule="evenodd" stroke="none"/>
      <path d="M1.0 1.2 L1.0 1.7 0.5 2.15 -0.25 2.45 -1.0 2.4 Q-1.55 2.25 -0.95 2.1 L-0.3 1.65 -0.05 1.25 -0.2 0.85 -0.3 0.45 -0.2 0.25 0.0 0.4 -0.05 0.35 0.5 0.65 Q0.95 0.95 1.0 1.2" fill="#681c04" fill-rule="evenodd" stroke="none"/>
      <path d="M1.55 -2.3 L2.1 -2.05 2.55 -1.5 2.55 -0.9 2.1 -0.5 1.35 -0.15 0.55 -0.3 Q0.3 -0.35 0.7 -0.6 L1.3 -1.0 1.55 -1.4 1.35 -1.85 1.25 -2.25 1.45 -2.4 1.55 -2.25 1.55 -2.3" fill="#681c04" fill-rule="evenodd" stroke="none"/>
    </g>
  </defs>
</svg>
